src/assets/images/bene6.svg

<svg width="40" height="40" viewBox="0 0 40 40" fill="none" xmlns="http://www.w3.org/2000/svg">
<circle cx="19.9615" cy="20.1968" r="19.563" fill="url(#paint0_linear_673_5)"/>
<g clip-path="url(#clip0_673_5)">
<path d="M12.5137 11.3594V26.9605C12.5135 27.0178 12.5246 27.0747 12.5465 27.1277C12.5683 27.1807 12.6004 27.2289 12.641 27.2694C12.6815 27.31 12.7297 27.3421 12.7827 27.364C12.8357 27.3859 12.8925 27.3971 12.9498 27.3969H28.2132V26.5241H13.386V11.3594H12.5137Z" fill="white"/>
<path d="M27.805 16.8796C27.9792 16.8796 28.1462 16.8104 28.2693 16.6873C28.3925 16.5641 28.4617 16.3971 28.4618 16.223V13.5167C28.4618 13.4304 28.4449 13.345 28.4119 13.2654C28.3789 13.1857 28.3305 13.1133 28.2695 13.0523C28.2085 12.9914 28.136 12.943 28.0563 12.9101C27.9766 12.8772 27.8912 12.8603 27.805 12.8604H25.297C25.2108 12.8604 25.1254 12.8773 25.0458 12.9103C24.9661 12.9433 24.8937 12.9917 24.8328 13.0527C24.7718 13.1136 24.7234 13.186 24.6904 13.2657C24.6574 13.3453 24.6404 13.4307 24.6404 13.5169C24.6404 13.6031 24.6574 13.6885 24.6904 13.7682C24.7234 13.8478 24.7718 13.9202 24.8328 13.9812C24.8937 14.0422 24.9661 14.0905 25.0458 14.1235C25.1254 14.1565 25.2108 14.1735 25.297 14.1735H26.1639L21.5301 19.6435L21.5056 17.999C21.5036 17.8654 21.4609 17.7355 21.3832 17.6267C21.3054 17.518 21.1963 17.4355 21.0705 17.3904C20.9447 17.3453 20.808 17.3397 20.6789 17.3742C20.5498 17.4088 20.4343 17.482 20.3478 17.584L14.2809 24.7483C14.2223 24.8137 14.1774 24.8902 14.1489 24.9732C14.1204 25.0562 14.1088 25.1441 14.1148 25.2317C14.1209 25.3193 14.1444 25.4047 14.1841 25.483C14.2237 25.5614 14.2787 25.6309 14.3457 25.6876C14.4127 25.7443 14.4904 25.787 14.5742 25.8132C14.658 25.8394 14.7461 25.8485 14.8335 25.84C14.9209 25.8315 15.0056 25.8055 15.0828 25.7637C15.16 25.7218 15.228 25.6649 15.2828 25.5964L20.218 19.7699L20.2425 21.4144C20.2443 21.5481 20.2869 21.6781 20.3646 21.7869C20.4423 21.8957 20.5514 21.9782 20.6772 22.0233C20.8031 22.0685 20.9397 22.0741 21.0688 22.0394C21.198 22.0048 21.3134 21.9315 21.3998 21.8295L27.1487 15.0421V16.2237C27.1489 16.3977 27.2182 16.5644 27.3412 16.6873C27.4643 16.8103 27.6311 16.8794 27.805 16.8796Z" fill="white"/>
</g>
<defs>
<linearGradient id="paint0_linear_673_5" x1="19.9615" y1="0.633789" x2="19.9615" y2="39.7598" gradientUnits="userSpaceOnUse">
<stop stop-color="#F4815A"/>
<stop offset="1" stop-color="#F25E53"/>
</linearGradient>
<clipPath id="clip0_673_5">
<rect width="15.9526" height="16.0375" fill="white" transform="translate(12.5098 11.3584)"/>
</clipPath>
</defs>
</svg>

<svg xmlns="http://www.w3.org/2000/svg" width="40" height="40" fill="none"><circle cx="19.962" cy="20.197" r="19.563" fill="url(#a)"/><g fill="#fff" clip-path="url(#b)"><path d="M12.514 11.36v15.6a.434.434 0 0 0 .436.437h15.263v-.873H13.386V11.36z"/><path d="M27.805 16.88a.657.657 0 0 0 .657-.657v-2.706a.656.656 0 0 0-.657-.657h-2.508a.656.656 0 1 0 0 1.314h.867l-4.634 5.47-.024-1.645a.658.658 0 0 0-1.158-.415l-6.067 7.164a.657.657 0 1 0 1.002.848l4.935-5.826.024 1.644a.656.656 0 0 0 1.158.415l5.749-6.787v1.182a.656.656 0 0 0 .656.656"/></g><defs><linearGradient id="a" x1="19.962" x2="19.962" y1=".634" y2="39.76" gradientUnits="userSpaceOnUse"><stop stop-color="#F4815A"/><stop offset="1" stop-color="#F25E53"/></linearGradient><clipPath id="b"><path fill="#fff" d="M12.51 11.358h15.953v16.038H12.51z"/></clipPath></defs></svg>
